X:1
T:Little Maggie
M:2/2
L:1/4
K:A
 c2| A2 A2| e2 e e| B =G3-| =G2 B B| A2 A2| e- d2 c| A4-| A2| c c|\
 A2 A2| e2 d2|B/2-A/2 =G3-| =G2 B B| A A2 A| e- d2 c| A4| z2||
